X:1
T:Brian Boru March
C:Arrangement B. Rescher
Z:Transcrit et/ou corrigé par B@D - 2006-11-16
Z:Pour toute observation mailto:-@-
M:6/8
L:1/8
%%continueall 1
%%maxshrink 1
K:G
%%%barsperstaff 8
%%staffsep 38
%%sysstaffsep 32
V:1
ed || 
c>BA Aed | c>BA Adc | B>AG Gdc | B>AG Ged | c>BA Aed | c>BA A2A | Acd e2d | c>BA Ade || 
c>BA Ade | c>BA Acd | B>AG Gcd | B>AG Gde | c>BA Ade | c>BA A2A | Acd e2d | c>BA A2A || 
Acd e2d  | e2d ecA  | GBc d2B  | d2B dBG  | Acd e2d  | e2d ecA  | Acd e2d | c>BA Aed || 
c>BA a2a | c>BA a2a | B>AG g2g | B>AG g2g | c>BA a2a | c>BA a2a | Acd e2d | c>BA ABA || 
G>FE EBA | G>FE EAG | F>ED DAG | F>ED DBA | G>FE EBA | G>FE E2E | EGA B2A | G>FE EAB | 
G>FE EAB | G>FE EGA | F>ED DGA | F>ED DAB | G>FE EAB | G>FE E2E | EGA B2A | G>FE E2E || 
EGA B2A  | G>FE EBA | G>FE e2e | G>FE e2e | F>ED d2d | F>ED d2d | G>FE e2e | G>FE e2e || 
EGA B2A  | G>FE Eed | c>BA Aed | c>BA Adc | B>AG Gdc | B>AG Ged | c>BA Aed | c>BA A2A || 
Acd e2d  | c>BA Ade | c>BA Ade | c>BA Acd | B>AG Gcd | B>AG Gde | c>BA Ade | c>BA A2A || 
Acd e2d  | c>BA A2A | Acd e2d  | e2d ecA  | GBc d2B  | d2B dBG  | Acd e2d  | e2d ecA  || 
Acd e2d  | c>BA Aed | c>BA a2a | c>BA a2a | B>AG g2g | B>AG g2g | c>BA a2a | c>BA a2a ||
c>BA Aed | BcB A2-A- | A3-A |]
V:2
zz || 
[e3A3] [e3A3] | [e3A3] [e3A3] | [d3G3] [d3G3] | [d3G3] [d3G3] | 
[e3A3] [e3A3] | [e3A3] [e3A3] | Acd e2d       | c>BA A3       || 
A2B c3 | c2d e3 | G2A B3 | B2c d3 | A2B c3 | c2d e3 | Acd e2d | c>BA A3 || 
A2e c3 | A2e c3 | G2d B3 | G2d B3 | A2e c3 | A2e c3 | Acd e2d | c>BA A3 || 
Ace aec | Ace aec | GBd gdB | GBd gdB | Ace aec | Ace aec | Acd e2d | c>BA A3 || 
[B3E3] [B3E3] | [B3E3] [B3E3] | [A3D3] [A3D3] | [A3D3] [A3D3] | 
[B3E3] [B3E3] | [B3E3] [B3E3] | EGA B2A | G>FE E3 | 
E2B G3  | e2b g3  | D2A F3  | d2a f3  | E2B G3  | e2b g3 | EGA B2A | G>FE E3 || 
EGA B2A | G>FE E3 | EGB e2B | e2G e2E | DFA d2A | d2F d2D | 
EGB e2B | e2G e2E || EGA B2A | G>FE E3 |   [e3A3] [e3A3] |
[e3A3] [e3A3] | [d3G3] [d3G3] | [d3G3] [d3G3] | [e3A3] [e3A3] | [e3A3] [e3A3] || Acd e2d |
c>BA A3 | A2e c3 | A2e c3 | G2d B3 | G2d B3 | A2e c3 |
A2e c3 || Acd e2d | c>BA A3 | Ace a2e | a2c a2A | GBd g2d | 
g2B g2G | Ace a2e | a2c a2A || Acd e2d | c>BA A3 | Ace aec | 
Ace aec | GBd gdB | GBd gdB | Ace aec | Ace aec || Acd edc | BcB A3- | A3- A |]

 




%%header "$P0	 $IR 	$P1"
%%footer $D - Éditions Galouvielle - 2009 - À usage librement privé dans le cadre familial

